img/ph-icon.svg

<svg xmlns="http://www.w3.org/2000/svg" viewBox="0 0 128 128" width="24" height="24"><path d="M24.621 38.43c1.807-5.409 9.022-12.623 14.436-14.429 5.408 1.806 16.236 12.628 18.037 18.042-1.801 5.409-7.215 10.823-10.823 14.43 1.801 5.414 5.409 9.022 10.823 14.43 5.413 5.414 9.021 9.022 14.434 10.828 3.613-3.608 9.023-9.022 14.433-10.828C91.371 72.709 102.2 83.532 104 88.946c-1.8 5.414-9.019 12.624-14.429 14.434-10.82 3.6-27.064-9.02-41.499-23.455-14.429-14.43-27.058-30.667-23.451-41.495z" fill="#fff"/></svg>

<?xml version="1.0" encoding="UTF-8" standalone="no"?>
<svg xmlns="http://www.w3.org/2000/svg" viewBox="0 0 128 128" width="24" height="24">
<path style="fill:#ffffff" d="M 24.621,38.43 C 26.428,33.021 33.643,25.807 39.057,24.001 C 44.465,25.807 55.293,36.629 57.094,42.043 C 55.293,47.452 49.879,52.866 46.271,56.473 C 48.072,61.887 51.68,65.495 57.094,70.903 C 62.507,76.317 66.115,79.925 71.528,81.731 C 75.141,78.123 80.551,72.709 85.961,70.903 C 91.371,72.709 102.2,83.532 104,88.946 C 102.2,94.36 94.981,101.57 89.571,103.38 C 78.751,106.98 62.507,94.36 48.072,79.925 C 33.643,65.495 21.014,49.258 24.621,38.43 Z" />
</svg>
